X: 27922
T: Mountain Road, The
R: reel
M: 4/4
K: Gmajor
Gz Az|:{A}B2dB eBdB|B2dB ABGA|B2dB eBdB|cABG AGED|
Bddg egdB|BBdB ABGA|Bz dg ed (3B^cd|dega bz ba|
ggge dG (3B^cd|dega bz ba|ggge dGBd|cdBG agef|
gz ge dG (3B^cd|dega bz ba|ggge ed (3B^cd|cdBG AGED:|

